resources/svg/folder-minus.svg

<svg xmlns="http://www.w3.org/2000/svg" viewBox="0 0 15 15" fill="currentColor"><path fill-rule="evenodd" clip-rule="evenodd" d="M0 2.5C0 1.67157 0.671573 1 1.5 1H5.70711L7.70711 3H13.5C14.3284 3 15 3.67157 15 4.5V12.5C15 13.3284 14.3284 14 13.5 14H1.5C0.671573 14 0 13.3284 0 12.5V2.5ZM5 9H10V8H5V9Z" fill="black"/></svg>

<svg xmlns="http://www.w3.org/2000/svg" viewBox="0 0 15 15" fill="currentColor"><path fill-rule="evenodd" clip-rule="evenodd" d="M0 2.5A1.5 1.5 0 011.5 1h4.207l2 2H13.5A1.5 1.5 0 0115 4.5v8a1.5 1.5 0 01-1.5 1.5h-12A1.5 1.5 0 010 12.5v-10zM5 9h5V8H5v1z" fill="currentColor"/></svg>
